X:1
T:Title
%%score { 1 | ( 2 3 ) }
L:1/8
M:4/4
K:Eb
V:1 treble nm="Grand Piano"
V:2 bass 
V:3 bass 
V:1
 z4 z2 z[Q:1/4=100] E | GGG[FA] [GB][GB][GB][GB] | [Ac][ce][Bd][Ac] [GB]3 E | GGGA BB=AB | %4
 cBAG [B,DF]3 [B,FA] | [B,EG][B,EG][B,EG][B,FA] [GB][GB][GB][GB] | [Ac][ce][Bd][Ac] [GB]3 [GB] | %7
 c2 e2 G2 [DF]2 |[M:7/8] E-E-E- E3 z |[M:1/8] [Ge] |[M:4/4] [Ad]2 [DFA]2 [DAc]3 [DAd] | %11
 [EGc]2 [B,EG]2 [EGB]3 [EGB] | [DGB]2 [B,DF][DAc] [DFB]2 [DF][FA] |[M:7/8] [EG]2 [GB]2 [GB]2 z | %14
[M:1/8] [Ge] |[M:4/4] [Ad]2 [DFA]2 [DAc]3 [DAd] | [EGc]2 [B,EG]2 [GB]3 [GB] | c2 e2 G2 [DF]2 | %18
[M:7/8] E-E-E- E3 z |] %19
V:2
 z4 z2 z [E,G,] | [E,B,E][E,B,E][E,B,E][E,B,] [E,E][E,E][E,E][E,E] | %2
 [A,E][A,E][A,E][A,E] [E,E]3 [E,G,] | [E,B,E][E,B,E][E,B,E][E,F,E] [E,G,E][E,G,E][E,_G,E][E,=G,E] | %4
 [A,E][G,B,E][F,B,D][E,B,E] z A,,G,,B,, | E,E,E,E, [E,E][E,E][E,E][E,E] | %6
 [A,E][A,E][A,E][A,E] [E,E]3 [E,E] | [A,EA]2 [A,CA]2[K:bass] [B,E]2 [B,,A,]2 | %8
[M:7/8] [E,G,]-[E,G,]-[E,G,]- [E,G,]3 z |[M:1/8] [E,B,] |[M:4/4] [F,B,]2 B,2 B,,3 B,, | %11
 E,2 E,2 E,3 E, | B,,2 B,,B,, B,,2 [B,,B,][B,,B,] |[M:7/8] [E,B,]2 [E,E]2 [E,E]2 z | %14
[M:1/8] [E,B,] |[M:4/4] [F,B,]2 B,2 B,,3 B,, | E,2 E,2 [E,E]3 [E,E] | %17
 [A,EA]2 [A,CA]2[K:bass] [B,E]2 [B,,A,]2 |[M:7/8] [E,G,]-[E,G,]-[E,G,]- [E,G,]3 z |] %19
V:3
 x8 | x8 | x8 | x8 | z4 B,,4 | x8 | x8 | x4[K:bass] x4 |[M:7/8] x7 |[M:1/8] x |[M:4/4] x8 | x8 | %12
 x8 |[M:7/8] x7 |[M:1/8] x |[M:4/4] x8 | x8 | x4[K:bass] x4 |[M:7/8] x7 |] %19

